packages/icons/raw/shadcn/lasso-select.svg

<svg width="24" height="24" viewBox="0 0 24 24" fill="none" xmlns="http://www.w3.org/2000/svg">
<path d="M7 22C6.37902 21.5343 5.875 20.9303 5.52786 20.2361C5.18073 19.5418 5 18.7762 5 18" stroke="black" stroke-width="2" stroke-linecap="round" stroke-linejoin="round"/>
<path d="M7 16.9301C7.96 17.3601 8.96 17.6701 9.99 17.8401" stroke="black" stroke-width="2" stroke-linecap="round" stroke-linejoin="round"/>
<path d="M3.34 14C2.48059 12.8424 2.01134 11.4417 2 10C2 5.58 6.48 2 12 2C17.52 2 22 5.58 22 10C21.985 10.6789 21.8739 11.3523 21.67 12" stroke="black" stroke-width="2" stroke-linecap="round" stroke-linejoin="round"/>
<path d="M5 18C5.53043 18 6.03914 17.7893 6.41421 17.4142C6.78929 17.0391 7 16.5304 7 16C7 15.4696 6.78929 14.9609 6.41421 14.5858C6.03914 14.2107 5.53043 14 5 14C4.46957 14 3.96086 14.2107 3.58579 14.5858C3.21071 14.9609 3 15.4696 3 16C3 16.5304 3.21071 17.0391 3.58579 17.4142C3.96086 17.7893 4.46957 18 5 18Z" stroke="black" stroke-width="2" stroke-linecap="round" stroke-linejoin="round"/>
<path d="M14.33 22H14.24C14.1721 21.9775 14.1127 21.9348 14.0698 21.8776C14.0269 21.8204 14.0025 21.7514 14 21.68V11.68C14 11.5915 14.0344 11.5065 14.096 11.443C14.1576 11.3795 14.2416 11.3426 14.33 11.34C14.41 11.34 14.48 11.37 14.54 11.42L21.88 17.42C21.9346 17.4626 21.9744 17.5214 21.9938 17.5879C22.0131 17.6545 22.011 17.7254 21.9878 17.7907C21.9645 17.856 21.9213 17.9123 21.8643 17.9516C21.8073 17.991 21.7393 18.0114 21.67 18.01H17.18L14.61 21.86C14.5774 21.9034 14.5351 21.9387 14.4865 21.963C14.4379 21.9873 14.3843 22 14.33 22Z" stroke="black" stroke-width="2" stroke-linecap="round" stroke-linejoin="round"/>
</svg>

<!-- @license lucide-static v1.23.0 - ISC -->
<svg
  class="lucide lucide-lasso-select"
  xmlns="http://www.w3.org/2000/svg"
  width="24"
  height="24"
  viewBox="0 0 24 24"
  fill="none"
  stroke="currentColor"
  stroke-width="2"
  stroke-linecap="round"
  stroke-linejoin="round"
>
  <path d="M7 22a5 5 0 0 1-2-4" />
  <path d="M7 16.93c.96.43 1.96.74 2.99.91" />
  <path d="M3.34 14A6.8 6.8 0 0 1 2 10c0-4.42 4.48-8 10-8s10 3.58 10 8a7.19 7.19 0 0 1-.33 2" />
  <path d="M5 18a2 2 0 1 0 0-4 2 2 0 0 0 0 4z" />
  <path d="M14.33 22h-.09a.35.35 0 0 1-.24-.32v-10a.34.34 0 0 1 .33-.34c.08 0 .15.03.21.08l7.34 6a.33.33 0 0 1-.21.59h-4.49l-2.57 3.85a.35.35 0 0 1-.28.14z" />
</svg>
